X:2730
T:Castle Jig
R:jig
C:Sean Ryan
S:(Unknown fiddle)
H:
N:
D:Unknown - Milltown Fiddle Recital
Z:Adrian Scahill
M:6/8
L:1/8
K:G
c2A BAG|AGE DB,G,|A,3 EDB,|DEG AGE|\
c2A BAG|AGE DB,G,|A,3 E3|DB,G, A,3:||
cBA a3|bag edB|GBd g3|GBd cBA|\
c3 dcd| ede gab|age dBG|EFG A3:||


